src/img/rocket.svg

<svg width="30" height="28" viewBox="0 0 30 28" fill="none" xmlns="http://www.w3.org/2000/svg">
<path d="M29.5334 26.7009C29.4733 21.247 26.4046 15.1562 21.8109 11.4149C21.6292 7.65852 19.9602 4.06511 17.1499 1.48752C16.9886 1.33723 16.7523 1.2915 16.5421 1.36926C16.3308 1.44824 16.1816 1.63635 16.1562 1.8564L15.6363 6.36746L14.9918 5.84082C14.7523 5.64497 14.3978 5.67072 14.1825 5.89894L6.82388 13.7011C6.71282 13.8188 6.6594 13.9702 6.66378 14.1203C6.66783 14.2587 6.72138 14.395 6.82482 14.5012L7.4041 15.097L2.87925 15.9347C2.65853 15.9757 2.50086 16.1548 2.43621 16.3661C2.42009 16.4203 2.41346 16.4765 2.41513 16.5335C2.41995 16.6987 2.49797 16.8642 2.61808 16.9755C5.38956 19.5175 9.14466 20.8991 12.957 20.806C17.0816 25.0578 23.4622 27.6587 28.9747 27.2945C29.288 27.2728 29.5342 27.0118 29.5334 26.7009ZM19.2003 21.7788C18.6096 21.2371 18.3002 20.505 18.2785 19.7594C18.2567 19.0137 18.5226 18.2569 19.0802 17.6657C20.1966 16.4832 22.0664 16.4028 23.2489 17.4863C24.4315 18.5709 24.4854 20.4158 23.369 21.5994C22.2527 22.783 20.3817 22.8635 19.2003 21.7788Z" fill="url(#paint0_linear)"/>
<path d="M8.90115 3.38233C7.60334 2.19198 1.85447 0.728525 1.20402 0.565516C0.994727 0.512797 0.771215 0.579487 0.622336 0.736139C0.512419 0.85268 0.456608 1.003 0.461058 1.15538C0.462689 1.21121 0.472572 1.26669 0.490708 1.32182C0.702635 1.94977 2.5987 7.49822 3.89651 8.68857C5.35806 10.0291 7.66995 9.92958 9.04964 8.46675C10.4293 7.00276 10.3615 4.7229 8.90115 3.38233Z" fill="url(#paint1_linear)"/>
<defs>
<linearGradient id="paint0_linear" x1="2.00602" y1="0.0579921" x2="21.0157" y2="30.9592" gradientUnits="userSpaceOnUse">
<stop stop-color="#4E0EBA"/>
<stop offset="1" stop-color="#36B1FF"/>
</linearGradient>
<linearGradient id="paint1_linear" x1="2.00602" y1="0.0579921" x2="21.0157" y2="30.9592" gradientUnits="userSpaceOnUse">
<stop stop-color="#4E0EBA"/>
<stop offset="1" stop-color="#36B1FF"/>
</linearGradient>
</defs>
</svg>

<svg width="30" height="28" fill="none" xmlns="http://www.w3.org/2000/svg"><path d="M29.533 26.7c-.06-5.453-3.128-11.544-7.722-15.285a14.46 14.46 0 0 0-4.661-9.927.596.596 0 0 0-.994.369l-.52 4.51-.644-.526a.596.596 0 0 0-.81.058L6.824 13.7a.584.584 0 0 0-.16.42.567.567 0 0 0 .16.38l.58.596-4.525.838c-.22.04-.378.22-.443.431a.53.53 0 0 0-.02.168c.004.165.082.33.202.442 2.772 2.541 6.527 3.923 10.339 3.83 4.125 4.252 10.505 6.853 16.018 6.488a.599.599 0 0 0 .558-.593ZM19.2 21.78a2.84 2.84 0 0 1-.921-2.02 2.92 2.92 0 0 1 .801-2.093c1.117-1.183 2.986-1.263 4.169-.18 1.183 1.085 1.236 2.93.12 4.113-1.116 1.184-2.987 1.264-4.169.18Z" fill="url(#a)"/><path d="M8.901 3.382C7.603 2.192 1.854.73 1.204.566a.603.603 0 0 0-.582.17.585.585 0 0 0-.131.586c.212.628 2.108 6.176 3.406 7.367 1.461 1.34 3.773 1.24 5.153-.222 1.38-1.464 1.311-3.744-.149-5.085Z" fill="url(#b)"/><defs><linearGradient id="a" x1="2.006" y1=".058" x2="21.016" y2="30.959" gradientUnits="userSpaceOnUse"><stop stop-color="#4E0EBA"/><stop offset="1" stop-color="#36B1FF"/></linearGradient><linearGradient id="b" x1="2.006" y1=".058" x2="21.016" y2="30.959" gradientUnits="userSpaceOnUse"><stop stop-color="#4E0EBA"/><stop offset="1" stop-color="#36B1FF"/></linearGradient></defs></svg>
